material/.icons/material/zip-disk.svg

<svg xmlns="http://www.w3.org/2000/svg" viewBox="0 0 24 24"><path d="M7 3L3 5v14a2 2 0 002 2h14a2 2 0 002-2V5l-4-2v2a1 1 0 01-1 1h-6a1 1 0 01-1-1V3H7m1 7h8a1 1 0 011 1v8H7v-8a1 1 0 011-1z"/></svg>

<?xml version="1.0" encoding="UTF-8"?><!DOCTYPE svg PUBLIC "-//W3C//DTD SVG 1.1//EN" "http://www.w3.org/Graphics/SVG/1.1/DTD/svg11.dtd"><svg xmlns="http://www.w3.org/2000/svg" xmlns:xlink="http://www.w3.org/1999/xlink" version="1.1" id="mdi-zip-disk" width="24" height="24" viewBox="0 0 24 24"><path d="M7,3L3,5V19A2,2 0 0,0 5,21H19A2,2 0 0,0 21,19V5L17,3V5A1,1 0 0,1 16,6H10A1,1 0 0,1 9,5V3H7M8,10H16A1,1 0 0,1 17,11V19H7V11A1,1 0 0,1 8,10Z" /></svg>
